React/src/assets/images/backend/expressjs-icon.svg

<svg width="130" height="130" viewBox="0 0 130 130" fill="none" xmlns="http://www.w3.org/2000/svg">
<path d="M130 100.73C125.271 101.932 122.346 100.783 119.722 96.8419L101.059 71.0206L98.3612 67.4456L76.5659 96.9272C74.0756 100.474 71.4634 102.018 66.8159 100.762L94.7253 63.2978L68.7416 29.4572C73.2103 28.5878 76.2978 29.0306 79.04 33.0322L98.3978 59.1744L117.898 33.1744C120.396 29.6278 123.082 28.2791 127.567 29.5872L117.492 42.9447L103.842 60.7181C102.217 62.7494 102.44 64.1388 103.935 66.1009L130 100.73ZM0.0325 62.6722L2.31562 51.4434C8.53125 29.2216 34.0031 19.9875 51.5694 33.7188C61.8353 41.795 64.3866 53.2188 63.8787 66.0156H6.0125C5.14313 89.05 21.7222 102.952 42.8594 95.8588C50.2734 93.3684 54.6406 87.5631 56.8262 80.2994C57.9353 76.6594 59.7716 76.0906 63.1922 77.1306C61.4453 86.2144 57.5047 93.8031 49.1766 98.5522C36.7331 105.662 18.9719 103.362 9.62812 93.4822C4.0625 87.75 1.76313 80.4863 0.73125 72.7188C0.56875 71.435 0.24375 70.2122 0 68.9813C0.0216667 66.8796 0.0325 64.7779 0.0325 62.6763V62.6722ZM6.11813 61.1284H58.4106C58.0694 44.4722 47.6978 32.6422 33.5237 32.5406C17.9644 32.4188 6.7925 43.9684 6.11813 61.1284V61.1284Z" fill="black"/>
</svg>

<svg width="130" height="130" fill="none" xmlns="http://www.w3.org/2000/svg"><path d="M130 100.73c-4.729 1.202-7.654.053-10.278-3.888L101.059 71.02l-2.698-3.575-21.795 29.481c-2.49 3.547-5.103 5.091-9.75 3.835l27.91-37.464-25.984-33.84c4.468-.87 7.556-.427 10.298 3.574l19.358 26.142 19.5-26c2.498-3.546 5.184-4.895 9.669-3.587l-10.075 13.358-13.65 17.773c-1.625 2.031-1.402 3.42.093 5.383L130 100.73zM.032 62.672l2.284-11.229C8.53 29.222 34.003 19.988 51.569 33.72c10.266 8.076 12.818 19.5 12.31 32.297H6.013c-.87 23.034 15.71 36.936 36.846 29.843 7.414-2.49 11.782-8.296 13.967-15.56 1.11-3.64 2.946-4.208 6.366-3.168-1.747 9.083-5.687 16.672-14.015 21.421-12.444 7.11-30.205 4.81-39.549-5.07C4.062 87.75 1.763 80.486.731 72.72.57 71.435.244 70.212 0 68.98c.022-2.101.033-4.203.033-6.305v-.004zm6.086-1.544h52.293c-.342-16.656-10.713-28.486-24.887-28.587-15.56-.122-26.732 11.427-27.406 28.587z" fill="#000"/></svg>
